build/img/icon-phone.svg

<svg width="22" height="24" viewBox="0 0 22 24" fill="none" xmlns="http://www.w3.org/2000/svg">
<path d="M3.45641 6.62432C3.37185 5.42623 3.63759 4.24606 4.3412 3.29684C4.9512 2.43632 5.74541 1.96636 6.70269 1.69172C7.50898 1.4525 8.03745 1.74561 8.26998 2.64204C8.60217 3.98224 9.07628 5.3225 9.24841 6.73361C9.30277 7.35485 8.90114 8.23322 8.46629 8.6856C7.37614 9.75888 7.60263 10.5399 8.43006 12.1643C8.68675 12.6881 9.09442 13.5934 9.88864 14.7919C10.7161 15.9992 11.1539 16.6472 12.2169 16.0975C13.3977 15.5035 14.2583 15.8855 15.1492 16.8444C15.7531 17.5369 16.4175 18.1318 17.0215 18.8243C17.8942 19.8542 17.8549 20.5641 17.1725 21.2915C15.9434 22.6309 13.9141 23.0736 12.4042 22.1766C11.5707 21.6881 10.7402 21.0487 10.0789 20.303C7.16477 16.9825 5.06297 13.1212 3.79765 8.76321C3.59532 8.02654 3.50171 7.28104 3.45641 6.62432Z" stroke="#0AD9C6" stroke-width="2" stroke-miterlimit="10"/>
</svg>

<svg width="22" height="24" xmlns="http://www.w3.org/2000/svg"><path d="M3.456 6.624c-.084-1.198.182-2.378.885-3.327.61-.86 1.404-1.33 2.362-1.605.806-.24 1.334.054 1.567.95.332 1.34.806 2.68.978 4.092.055.62-.347 1.5-.782 1.952-1.09 1.073-.863 1.854-.036 3.478.257.524.664 1.43 1.459 2.628.827 1.207 1.265 1.855 2.328 1.306 1.18-.594 2.041-.212 2.932.746.604.693 1.269 1.288 1.873 1.98.872 1.03.833 1.74.15 2.467-1.229 1.34-3.258 1.783-4.768.886-.833-.489-1.664-1.128-2.325-1.874-2.914-3.32-5.016-7.182-6.281-11.54a10.989 10.989 0 01-.342-2.139z" stroke="#0AD9C6" stroke-width="2" stroke-miterlimit="10"/></svg>
